!!!OTL: Bundeslied.
!!!OTL-incipit: IN ALLEN GUTEN STUNDEN
!!!COM: J. Fr. Reichardt
!!!ARE: Europa, Mitteleuropa, Deutschland
!!!SCT: F0714
!!!TXL: @@DE
!!!YEM: Copyright 1995, estate of Helmut Schaffrath.
**kern	**text
*ICvox	*
*clefG2	*
*M4/4	*
*met(c)	*
*k[f#c#g#]	*
*A:	*
!LO:TX:a:t=Feierlich froh.	!
!LO:TX:a:t=Dreiſtimmig ohne, einſtimmig mit Begleitung.	!
!LO:TX:a:t=P:only the highest voice encoded:problem	!
{4e	1._Jn
=1	=1
4.ee	al-
8dd	-len
4cc#	gu-
4b/	-ten
=2	=2
(>4.a	Stun-
8e)	.
4e}	-den,
{4a	er-
=3	=3
4b/	-höht
4a	von
4dd/	Lieb
4cc#/	und
=4	=4
2b/}	Wein,
{2ee/	ſoll
=5	=5
4.ee/	die-
8dd/	-ſes
8cc#/L	Lied
8eeJ	.
8dd/L	ver-
8bJ	.
=6	=6
(>4.a	-bun-
8e)	.
4e}	-den
{4a	von
=7	=7
4ff#/	uns
4ee/	ge-
4dd/	-ſungen
4cc#/	.
=8	=8
2b/}	ſein.
{2b/	Uns
=9	=9
4b/	hält
4b/	der
4.ff#/	Gott
8dd#/	ʒu-
=10	=10
(>4.ee/	-ſam-
8b/)	.
4b/}	-men,
{4cc#/	der
=11	=11
4f#	uns
4f#	hie-
4.b/	-her
8a	ge-
=12	=12
4aqq	.
2g#	-bracht,
4r}	.
{4e	er-
=13	=13
4ddn/	-neu-
4b/	-ert
4g#	un-
4e	-ſre
=14	=14
(4.ee	Flam-
8dd)	.
4cc#}	-men,
{4ee	er
=15	=15
4a	hat
4a	ſie
4dd	an-
8b/L	-ge-
8g#J	.
=16	=16
2a	-facht.
4r}	.
==	==
!!!AGN: Geselligkeits -, Bundes - Lied
!!!ONB: ESAC (Essen Associative Code) Database: FINK
!!!AMT: simple quadruple
!!!AIN: vox
!!!EED: Helmut Schaffrath
!!!EEV: 1.0
!!!RDF**kern: > = above
!!Text: J. W. Goethe
!!!GTL: Liedertafel- und Gesellschaftslieder
!!!source: Musikalischer Hausschatz der Deutschen. Eine Sammlung von über 1000 Liedern und Gesängen mit Singstimmen und Klavierbegleitung. Leipzig, Litterarisches Verlags-Haus.
!!!page: 487
!!!URL-scan: https://www.digitale-sammlungen.de/en/view/bsb11144622?page=438
!!!ENC: Anna Maria Matuszewska
!!!EEV: 2024/08/05
*-	*-
